X:2
T:Arab Steed,The. WHG.002
R:air
S:W.H.Giles MS,Bampton,Oxfordshire,1839p2
O:England
H:donated by Mrs W.R.Kettlewell to VWML,Apr 1927.
A:Bampton, Oxfordshire
C:This tune is marked ‘Wrong’ and crossed through.
Z:PJHeadford – VMP 2009
M:3/4
L:1/8
Q:1/4=120
K:G
d|d3 B c e|”^All as writ”d<B G2G2|e3 d c B|A2z z2d|
d3B c3/4 e/4 B G|G e d/ d3c|G2-G2zz|z2z3B|
A3A Bc2|e2d B2G|A3B c ^c|(cd3)zB|
A3B ^c> d|e>B BzB|A3A B ^c|d>e f2zf|
f> e d2c2|B2Bzz2|d2z2z2|d2z2z2|
f e d2^c2|d6|d6|d2d D/4E/4F/4G/4A/4B/4c/4^c/4 d|
d3 B c e|d B G2G|e3 d c B|A2-A2 zz/B/|
d3 B c e|d< B G2G|e2d d2F|G2-G B A B|
d3 c B A|ed2zzB|A3 B c d|B2-B B c d|
e3e d ^c|Hd4zB|A A d3 F|G6|]

